X:176
T: Eifersucht (2-78) S. 232
N: P0951
O: Lothringen
S: PINCK, Louis: Verklingende Weisen, Bd 2, Metz 1928]
R: Eifersucht]
M: 3/8
L: 1/16
K: G
GG | B2B2AA | B4
GA | B2B2A2 | B4z2 |
B2B2BA | B2d2B2 |
A2A2AG | A2d2A2 |
A2G2B2 | G4

@@@ Tune index: 7726
